assets/maginifying-glass-2.svg

<svg xmlns="http://www.w3.org/2000/svg" fill="none" viewBox="0 0 29 34">
  <circle cx="10.9282" cy="10.9282" r="7.5" stroke="#2A2238" transform="rotate(-30 10.9282 10.9282)"/>
  <path fill="#2A2238" fill-rule="evenodd" d="M13.9282 16.1244c2.8698-1.6569 3.853-5.3264 2.1962-8.19619-1.6569-2.86976-5.3264-3.85301-8.19619-2.19615C5.05845 7.38891 4.0752 11.0585 5.73206 13.9282c1.65685 2.8698 5.32644 3.853 8.19614 2.1962Zm-6.38073-6.1021c.24025-.89659.82684-1.66105 1.63074-2.12518l-.5-.86603c-1.03358.59674-1.78777 1.57962-2.09667 2.73243-.30889 1.15278-.14718 2.38108.44955 3.41468l.86603-.5c-.46413-.8039-.5899-1.7592-.34965-2.6559Z" clip-rule="evenodd"/>
  <path fill="#2A2238" d="m12.5621 15.7583 1.7320508-1 4 6.92820323-1.7320508 1z"/>
  <rect width="4" height="10" x="15.1962" y="22.3205" fill="#2A2238" rx="1.5" transform="rotate(-30 15.1962 22.3205)"/>
</svg>

<svg width="29" height="34" viewBox="0 0 29 34" fill="none" xmlns="http://www.w3.org/2000/svg">
<circle cx="10.9282" cy="10.9282" r="7.5" transform="rotate(-30 10.9282 10.9282)" stroke="#2A2238"/>
<path fill-rule="evenodd" clip-rule="evenodd" d="M13.9282 16.1244C16.798 14.4675 17.7812 10.798 16.1244 7.92821C14.4675 5.05845 10.798 4.0752 7.92821 5.73206C5.05845 7.38891 4.0752 11.0585 5.73206 13.9282C7.38891 16.798 11.0585 17.7812 13.9282 16.1244ZM7.54747 10.0223C7.78772 9.12571 8.37431 8.36125 9.17821 7.89712L8.67821 7.03109C7.64463 7.62783 6.89044 8.61071 6.58154 9.76352C6.27265 10.9163 6.43436 12.1446 7.03109 13.1782L7.89712 12.6782C7.43299 11.8743 7.30722 10.919 7.54747 10.0223Z" fill="#2A2238"/>
<rect x="12.5621" y="15.7583" width="2" height="8" transform="rotate(-30 12.5621 15.7583)" fill="#2A2238"/>
<rect x="15.1962" y="22.3205" width="4" height="10" rx="1.5" transform="rotate(-30 15.1962 22.3205)" fill="#2A2238"/>
</svg>
